svgs/sharp-thin/euro-sign.svg

<svg xmlns="http://www.w3.org/2000/svg" viewBox="0 0 320 512"><!--! Font Awesome Pro 6.6.0 by @fontawesome - https://fontawesome.com License - https://fontawesome.com/license (Commercial License) Copyright 2024 Fonticons, Inc. --><path d="M35.7 208c-2.4 13-3.7 26.3-3.7 40l0 16c0 13.7 1.3 27 3.7 40L0 304l0 16 39.3 0C64 412.1 148.1 480 248 480l65 0 8 0 0-16-8 0-65 0c-91 0-167.8-60.8-192.1-144L288 320l0-16L52 304c-2.6-12.9-4-26.3-4-40l0-16c0-13.7 1.4-27.1 4-40l236 0 0-16L55.9 192C80.2 108.8 157 48 248 48l65 0 8 0 0-16-8 0-65 0C148.1 32 64 99.9 39.3 192L0 192l0 16 35.7 0z"/></svg>

<svg xmlns="http://www.w3.org/2000/svg" viewBox="0 0 320 512"><!--! Font Awesome Pro 6.5.2 by @fontawesome - https://fontawesome.com License - https://fontawesome.com/license (Commercial License) Copyright 2024 Fonticons, Inc. --><path d="M35.7 208c-2.4 13-3.7 26.3-3.7 40v16c0 13.7 1.3 27 3.7 40H0v16H39.3C64 412.1 148.1 480 248 480h65 8V464h-8H248c-91 0-167.8-60.8-192.1-144H288V304H52c-2.6-12.9-4-26.3-4-40V248c0-13.7 1.4-27.1 4-40H288V192H55.9C80.2 108.8 157 48 248 48h65 8V32h-8H248C148.1 32 64 99.9 39.3 192H0v16H35.7z"/></svg>
